public/icons/x-circle-outline-lg.svg

<svg role="img" xmlns="http://www.w3.org/2000/svg" width="72" height="72" fill="none" viewBox="0 0 72 72">
  <circle cx="36" cy="36" r="30" stroke="currentColor"/>
  <path fill="currentColor" fill-rule="evenodd" d="M21.3536 20.6464a.5002.5002 0 0 0-.7072 0 .5002.5002 0 0 0 0 .7072L35.2929 36 20.6464 50.6464a.5002.5002 0 0 0 0 .7072.5002.5002 0 0 0 .7072 0L36 36.7071l14.6464 14.6465a.5002.5002 0 0 0 .7072 0 .5002.5002 0 0 0 0-.7072L36.7071 36l14.6465-14.6464a.5002.5002 0 0 0 0-.7072.5002.5002 0 0 0-.7072 0L36 35.2929 21.3536 20.6464Z"/>
</svg>

<svg role="img" width="72" height="72" viewBox="0 0 72 72" fill="none" xmlns="http://www.w3.org/2000/svg">
<circle cx="36" cy="36" r="32.5" stroke="currentColor"/>
<path fill-rule="evenodd" clip-rule="evenodd" d="M21.3536 20.6464C21.1583 20.4512 20.8417 20.4512 20.6464 20.6464C20.4512 20.8417 20.4512 21.1583 20.6464 21.3536L35.2929 36L20.6464 50.6464C20.4512 50.8417 20.4512 51.1583 20.6464 51.3536C20.8417 51.5488 21.1583 51.5488 21.3536 51.3536L36 36.7071L50.6464 51.3536C50.8417 51.5488 51.1583 51.5488 51.3536 51.3536C51.5488 51.1583 51.5488 50.8417 51.3536 50.6464L36.7071 36L51.3536 21.3536C51.5488 21.1583 51.5488 20.8417 51.3536 20.6464C51.1583 20.4512 50.8417 20.4512 50.6464 20.6464L36 35.2929L21.3536 20.6464Z" fill="currentColor"/>
</svg>
